svgs/light/book-circle-arrow-right.svg

<svg xmlns="http://www.w3.org/2000/svg" viewBox="0 0 640 512"><!-- Font Awesome Pro 6.0.0-alpha2 by @fontawesome - https://fontawesome.com License - https://fontawesome.com/license (Commercial License) --><path d="M336 480H65.812C49.867 480 35.047 469.148 32.445 453.414C29.141 433.395 44.586 416 64 416H304C312.836 416 320 408.836 320 400C320 391.162 312.836 384 304 384H64C52.289 384 41.453 387.389 32 392.9V80C32 53.49 53.492 32 80 32H400C408.836 32 416 39.162 416 48V176C416 184.836 423.164 192 432 192S448 184.836 448 176V48C448 21.49 426.508 0 400 0H80C35.816 0 0 35.816 0 80V448C0 483.346 28.656 512 64 512H336C344.836 512 352 504.836 352 496C352 487.162 344.836 480 336 480ZM496 224C416.461 224 352 288.463 352 368S416.461 512 496 512S640 447.537 640 368S575.539 224 496 224ZM496 480C434.242 480 384 429.758 384 368S434.242 256 496 256S608 306.242 608 368S557.758 480 496 480ZM571.312 356.688L515.312 300.688C509.062 294.438 498.937 294.438 492.688 300.688S486.438 317.063 492.688 323.312L521.375 352H432C423.164 352 416 359.164 416 368S423.164 384 432 384H521.375L492.688 412.688C486.438 418.938 486.438 429.063 492.688 435.312C495.812 438.438 499.906 440 504 440S512.188 438.438 515.312 435.312L571.312 379.312C577.562 373.062 577.562 362.938 571.312 356.688Z"/></svg>

<svg xmlns="http://www.w3.org/2000/svg" viewBox="0 0 640 512"><!--! Font Awesome Pro 6.0.0-alpha3 by @fontawesome - https://fontawesome.com License - https://fontawesome.com/license (Commercial License) --><path d="M336 480H65.81c-15.95 0-30.77-10.85-33.37-26.59C29.14 433.4 44.59 416 64 416h240c8.836 0 16-7.164 16-16c0-8.838-7.164-16-16-16H64c-11.71 0-22.55 3.389-32 8.9V80C32 53.49 53.49 32 80 32h320C408.8 32 416 39.16 416 48v128C416 184.8 423.2 192 432 192S448 184.8 448 176v-128C448 21.49 426.5 0 400 0h-320C35.82 0 0 35.82 0 80V448c0 35.35 28.66 64 64 64h272c8.836 0 16-7.164 16-16C352 487.2 344.8 480 336 480zM496 224C416.5 224 352 288.5 352 368s64.46 144 144 144s144-64.46 144-144S575.5 224 496 224zM496 480c-61.76 0-112-50.24-112-112S434.2 256 496 256S608 306.2 608 368S557.8 480 496 480zM571.3 356.7l-56-56c-6.25-6.25-16.38-6.25-22.62 0s-6.25 16.38 0 22.62L521.4 352H432c-8.836 0-15.1 7.164-15.1 16S423.2 384 432 384h89.38l-28.69 28.69c-6.25 6.25-6.25 16.38 0 22.62C495.8 438.4 499.9 440 504 440s8.188-1.562 11.31-4.688l56-56C577.6 373.1 577.6 362.9 571.3 356.7z"/></svg>
